!!!OTL: Vergebliches Staendchen.
!!!OTL-incipit: GUTEN ABEND MEIN SCHATZ
!!!ARE: Europa, Mitteleuropa, Deutschland, Niederrhein
!!!SCT: Z1159
!!!TXL: @@DE
!!!YEM: Copyright 1995, estate of Helmut Schaffrath.
**kern	**text
*ICvox	*
*M3/4	*
*k[]	*
*C:	*
!LO:TX:a:t=Vom Niederrhein.	!
{8.g	Gu-
16g	-ten
=1	=1
4.cc/	A-
8g	-bend,
8eL	mein
8gJ	.
=2	=2
4cc/	Schatʒ,
4r}	.
{8.cc/	gu-
16cc/	-ten
=3	=3
4.dd	A-
8ee	-bend,
8ffL	mein
8ddJ	.
=4	=4
2cc/	Kind!
4r}	.
=5	=5
{4dd	ich
4dd	komm
8bL	aus
8gJ	.
=6	=6
4.cc/	Lieb'
8dd	ʒu
4ee}	dir,
=7	=7
{4dd	ach,
4dd	mach'
8bL	mir
8gJ	.
=8	=8
4.cc/	auf
8dd	die
4ee}	Thür,
=9	=9
{8ff	mach'
8dd	mir
4ee	auf
4dd	die
=10	=10
2cc/}	Thür!
==	==
!!!AGN: Liebes -, Kilt -  Lied
!!!ONB: ESAC (Essen Associative Code) Database: ZUCCAL
!!!AMT: simple triple
!!!AIN: vox
!!!EED: Helmut Schaffrath
!!!EEV: 1.0
!!!GTL: V. Lieder der Minne.
!!!URL-scan: http://digitale-sammlungen.de/de/view/bsb11160573?page=342
!!!ENC: Anna Maria Matuszewska
!!!EEV: 2025/02/05
*-	*-
